usr/share/icons/biglinux-icons-material-dark/22/actions/markasblank.svg

<svg xmlns="http://www.w3.org/2000/svg" viewBox="0 0 22 22">
<defs id="defs3051">
<style id="current-color-scheme" type="text/css">
.ColorScheme-Text{color:#dedede}
</style>
</defs>
<path d="M2 3v16h3v-1H3V4h2V3zm14 0v1h2v14h-2v1h3V3zM5 14v2h11v-2h-1v1H6v-1z" class="ColorScheme-Text" style="fill:currentColor;fill-opacity:1;stroke:none"/>
</svg>

<svg xmlns="http://www.w3.org/2000/svg" viewBox="0 0 22 22">
  <defs id="defs3051">
    <style type="text/css" id="current-color-scheme">
      .ColorScheme-Text {
        color:#dedede;
      }
      </style>
  </defs>
 <path 
     style="fill:currentColor;fill-opacity:1;stroke:none" 
     d="M 2 3 L 2 19 L 3 19 L 5 19 L 5 18 L 3 18 L 3 4 L 5 4 L 5 3 L 3 3 L 2 3 z M 16 3 L 16 4 L 18 4 L 18 18 L 16 18 L 16 19 L 18 19 L 19 19 L 19 3 L 18 3 L 16 3 z M 5 14 L 5 15 L 5 16 L 16 16 L 16 15 L 16 14 L 15 14 L 15 15 L 6 15 L 6 14 L 5 14 z "
     class="ColorScheme-Text"
     />
</svg>
